src/shared/_assets/icons/board-teacher.svg

<svg width="22" height="19" viewBox="0 0 22 19" fill="none" xmlns="http://www.w3.org/2000/svg">
<path d="M20 18V2H2V10H0V2C0 1.45 0.195833 0.979167 0.5875 0.5875C0.979167 0.195833 1.45 0 2 0H20C20.55 0 21.0208 0.195833 21.4125 0.5875C21.8042 0.979167 22 1.45 22 2V16C22 16.55 21.8042 17.0208 21.4125 17.4125C21.0208 17.8042 20.55 18 20 18ZM8 11C6.9 11 5.95833 10.6083 5.175 9.825C4.39167 9.04167 4 8.1 4 7C4 5.9 4.39167 4.95833 5.175 4.175C5.95833 3.39167 6.9 3 8 3C9.1 3 10.0417 3.39167 10.825 4.175C11.6083 4.95833 12 5.9 12 7C12 8.1 11.6083 9.04167 10.825 9.825C10.0417 10.6083 9.1 11 8 11ZM8 9C8.55 9 9.02083 8.80417 9.4125 8.4125C9.80417 8.02083 10 7.55 10 7C10 6.45 9.80417 5.97917 9.4125 5.5875C9.02083 5.19583 8.55 5 8 5C7.45 5 6.97917 5.19583 6.5875 5.5875C6.19583 5.97917 6 6.45 6 7C6 7.55 6.19583 8.02083 6.5875 8.4125C6.97917 8.80417 7.45 9 8 9ZM0 19V16.2C0 15.6333 0.145833 15.1125 0.4375 14.6375C0.729167 14.1625 1.11667 13.8 1.6 13.55C2.63333 13.0333 3.68333 12.6458 4.75 12.3875C5.81667 12.1292 6.9 12 8 12C9.1 12 10.1833 12.1292 11.25 12.3875C12.3167 12.6458 13.3667 13.0333 14.4 13.55C14.8833 13.8 15.2708 14.1625 15.5625 14.6375C15.8542 15.1125 16 15.6333 16 16.2V19H0ZM2 17H14V16.2C14 16.0167 13.9542 15.85 13.8625 15.7C13.7708 15.55 13.65 15.4333 13.5 15.35C12.6 14.9 11.6917 14.5625 10.775 14.3375C9.85833 14.1125 8.93333 14 8 14C7.06667 14 6.14167 14.1125 5.225 14.3375C4.30833 14.5625 3.4 14.9 2.5 15.35C2.35 15.4333 2.22917 15.55 2.1375 15.7C2.04583 15.85 2 16.0167 2 16.2V17Z" fill="#191F28"/>
</svg>

<svg xmlns="http://www.w3.org/2000/svg" fill="none" viewBox="0 0 22 19"><path fill="currentColor" d="M20 18V2H2v8H0V2Q0 1.176.588.588A1.93 1.93 0 0 1 2 0h18q.824 0 1.413.588Q22 1.175 22 2v14q0 .824-.587 1.413A1.93 1.93 0 0 1 20 18M8 11q-1.65 0-2.825-1.175T4 7t1.175-2.825T8 3t2.825 1.175T12 7t-1.175 2.825T8 11m0-2q.825 0 1.412-.588Q10 7.826 10 7q0-.824-.588-1.412A1.93 1.93 0 0 0 8 5q-.824 0-1.412.588A1.93 1.93 0 0 0 6 7q0 .824.588 1.412Q7.175 9 8 9M0 19v-2.8q0-.85.438-1.562.437-.713 1.162-1.088a14.8 14.8 0 0 1 3.15-1.163A13.8 13.8 0 0 1 8 12q1.65 0 3.25.387 1.6.388 3.15 1.163.724.375 1.162 1.087Q16 15.35 16 16.2V19zm2-2h12v-.8a.97.97 0 0 0-.5-.85q-1.35-.675-2.725-1.012a11.6 11.6 0 0 0-5.55 0Q3.85 14.675 2.5 15.35a.97.97 0 0 0-.5.85z"/></svg>
